polaris-icons/icons/new-icons/UploadMajor.svg

<svg width="20" height="20" viewBox="0 0 20 20" fill="none" xmlns="http://www.w3.org/2000/svg">
<path d="M16.5 6.26C16.5 6.67421 16.1642 7.01 15.75 7.01C15.3358 7.01 15 6.67421 15 6.26V5.75C15 5.33579 14.6642 5 14.25 5L5.75 5C5.33579 5 5 5.33579 5 5.75V6.26C5 6.67421 4.66421 7.01 4.25 7.01C3.83579 7.01 3.5 6.67421 3.5 6.26V5.75C3.5 4.50736 4.50736 3.5 5.75 3.5H14.25C15.4926 3.5 16.5 4.50736 16.5 5.75V6.26Z" fill="#4A4A4A"/>
<path d="M10.75 16.01C10.75 16.4242 10.4142 16.76 10 16.76C9.58579 16.76 9.25 16.4242 9.25 16.01V9.32066L7.53033 11.0403C7.23744 11.3332 6.76256 11.3332 6.46967 11.0403C6.17678 10.7474 6.17678 10.2726 6.46967 9.97967L9.46967 6.97967C9.76256 6.68678 10.2374 6.68678 10.5303 6.97967L13.5303 9.97967C13.8232 10.2726 13.8232 10.7474 13.5303 11.0403C13.2374 11.3332 12.7626 11.3332 12.4697 11.0403L10.75 9.32066L10.75 16.01Z" fill="#4A4A4A"/>
</svg>

<svg viewBox="0 0 20 20" xmlns="http://www.w3.org/2000/svg"><path d="M16.5 6.26a.75.75 0 0 1-1.5 0v-.51a.75.75 0 0 0-.75-.75h-8.5a.75.75 0 0 0-.75.75v.51a.75.75 0 0 1-1.5 0v-.51a2.25 2.25 0 0 1 2.25-2.25h8.5a2.25 2.25 0 0 1 2.25 2.25v.51Z" fill="#5C5F62"/><path d="M10.75 16.01a.75.75 0 0 1-1.5 0v-6.69l-1.72 1.72a.75.75 0 1 1-1.06-1.06l3-3a.75.75 0 0 1 1.06 0l3 3a.75.75 0 1 1-1.06 1.06l-1.72-1.72v6.69Z" fill="#5C5F62"/></svg>
